X: 15009
T: Geordie McCrae's Fancy
R: reel
M: 4/4
K: Dmajor
|:A,2|D2 FD GECE|A,DFA BG- GA/G/|FGAB AFDF|GFED CA, A,/A,/A,|
DDFD GECE|A,D F/G/A BG- GA/G/|FGAB AFDF|GECE D2:|
|:FA|d2 fd gece|dfed cA A/A/A|BdGB ADFA|dAFA GEEA|
ddfd gece|dfed cA A/A/A|BdGB ADFA|GECE D2:|

